X:1
T:Victory Ahead
T:William Grum, 1905
T:Victory Ahead
T:Public Domain
T:Public Domain
T:Public Domain
C:William Grum, 1905
Z:Public Domain
%%score ( 1 2 ) ( 3 4 )
L:1/8
M:4/4
K:D
V:1 treble 
V:2 treble 
V:3 bass 
V:4 bass 
V:1
 [FA]>[^E^G] [FA]>[=GB] [FA]>[DF] D2 | [DG]2 [GB]2 [FA]4 | [CG]>[CG] [CE]>[CG] [DF]>[DF] D2 | %3
w: 1.~When the hosts of Is- ra- el|by God, Round|the walls of Jer- i- cho soft-|
w: 2.~Da- vid with a shep- herd’s sling|five stones, Met|the gi- ant on the field all|
w: 3.~Dan- iel prayed un- to the Lord|each day, Then|un- to the li- on’s den led|
w: 4.~Of- ten with the car- nal mind|was tried, Ask-|ing for de- liv- er- ance oft|
w: 5.~When like those who’ve gone be- fore|that land, By|death’s riv- er cold and dark I|
 [DE]2 [DB]2 [CE]4 | D>D [DF]>[DE] D2 [DF]2 | [FA]>[FA] [FA]>[DF] [FA]3 [FA] | %6
w: trod, Trust- ing|in the Lord, They felt the|By faith they saw the vic-|
w: lone, Trust- ing|in the Lord, he knew what|By faith he saw the vic-|
w: way, Trust- ing|in the Lord, he did not|By faith he saw the vic-|
w: cried, Trust- ing|in the Lord, I reck- oned|By faith I see the vic-|
w: stand. Trust- ing|in the Lord, I will not|By faith I see the vic-|
 [GB]>[Ac] [Bd]>[GB] [FA]2 [Fd]2 | [Fd]2 [Gc]2 [Fd]4 ||"^Refrain" [FA]>[FA] [FA]>[DF] (F2 A2) | %9
w: to- ry a- head. * *|||
w: to- ry a- head. * *|||
w: to- ry a- head. Vic- to-|ry a- head,|vic- to- ry a- head, *|
w: to- ry a- head. * *|||
w: to- ry a- head. * *|||
 [Gd]>[Gd] [Gd]>[GB] [Gd]4 | [FA]>[GB] [FA]>[DF] D2 [DF]2 | [DE]>[DE] [DE]>[DF] [CE]4 | %12
w: |||
w: |||
w: the blood of Je- sus,|vic- to- ry a- head. Trust-|in the Lord, I hear|
w: |||
w: |||
 D>D [DF]>[DE] D2 [DF]2 | [FA]>[FA] [FA]>[DF] [FA]3 [FA] | [GB]>[Ac] [Bd]>[GB] [FA]2 [Fd]2 | %15
w: |||
w: |||
w: the con- qu’ror’s tread, By faith|vic- to- ry a- head. *||
w: |||
w: |||
 [Fd]2 [Gc]2 [Fd]4 |] %16
w: |
w: |
w: |
w: |
w: |
V:2
 x6 D2 | x8 | x6 D2 | x8 | D>D x3/2 D2 x5/2 | x8 | x8 | x8 || x4 A4 | x8 | x4 D2 x2 | x8 | %12
w: led||ly||con- qu’ror’s tread,||||||||
w: and||a-||God had said,||||||||
w: thrice||the||fear or dread,||||Through||ing||
w: I||I||I was dead,||||||||
w: to||shall||fear or dread,||||||||
 D>D x3/2 D2 x5/2 | x8 | x8 | x8 |] %16
w: ||||
w: ||||
w: I see the||||
w: ||||
w: ||||
V:3
 [D,D]>[D,D] [D,D]>[D,D] [D,D]>[D,A,] [D,F,]2 | [G,B,]2 [G,D]2 [D,D]4 | %2
 [A,,A,]>[A,,A,] [A,,A,]>[A,,A,] [D,A,]>[D,A,] [D,F,]2 | [E,^G,]2 [E,G,]2 [A,,A,]4 | %4
 [D,F,]>[D,F,] [D,A,]>[D,G,] [D,F,]2 [D,A,]2 | [D,D]>[D,D] [D,D]>[D,A,] [D,D]3 [D,D] | %6
 [G,D]>[G,D] [G,D]>[G,D] [A,D]2 [A,D]2 | [A,,A,]2 [A,,A,]2 [D,A,]4 || %8
 [D,D]>[D,D] [D,D]>[D,A,] (D,2 F,2) | [G,B,]>[G,B,] [G,B,]>[G,D] [G,B,]4 | %10
 [D,D]>[D,D] [D,D]>[D,A,] [D,F,]2 [D,A,]2 | [E,^G,]>[E,G,] [E,G,]>[E,G,] [A,,A,]4 | %12
 [D,F,]>[D,F,] [D,A,]>[D,G,] [D,F,]2 [D,A,]2 | [D,D]>[D,D] [D,D]>[D,A,] [D,D]3 [D,D] | %14
 [G,D]>[G,D] [G,D]>[G,D] [A,D]2 [A,D]2 | [A,,A,]2 [A,,A,]2 [D,A,]4 |] %16
V:4
 x8 | x8 | x8 | x8 | x8 | x8 | x8 | x8 || x4 D4 | x8 | x8 | x8 | x8 | x8 | x8 | x8 |] %16

